icons/rural_post_fill.svg

<svg width="48" height="48" viewBox="0 0 48 48" fill="none" xmlns="http://www.w3.org/2000/svg">
<path fill-rule="evenodd" clip-rule="evenodd" d="M25 12C25 10.8954 25.8954 10 27 10H35C36.1046 10 37 10.8954 37 12V20C37 21.1046 36.1046 22 35 22H27C25.8954 22 25 21.1046 25 20V12ZM34 15H32V13H30V15H28V17H30V19H32V17H34V15Z" fill="black"/>
<path d="M5 12L23 12V18H8V37H29V25H37V37H40V18H39V12L43 12V14H42V37H43C43.5523 37 44 37.4477 44 38C44 38.5523 43.5523 39 43 39H5C4.44772 39 4 38.5523 4 38C4 37.4477 4.44772 37 5 37H6V14H5L5 12Z" fill="black"/>
<path d="M27 34L10 34V32H11V25H26V32H27V34Z" fill="black"/>
</svg>

<svg
  xmlns="http://www.w3.org/2000/svg"
  width="24"
  height="24"
  viewBox="0 0 24 24"
  fill="none"
  stroke="currentColor"
  stroke-width="2"
  stroke-linecap="round"
  stroke-linejoin="round"
>
  <path
    fill-rule="evenodd"
    d="M25 12a2 2 0 0 1 2-2h8a2 2 0 0 1 2 2v8a2 2 0 0 1-2 2h-8a2 2 0 0 1-2-2zm9 3h-2v-2h-2v2h-2v2h2v2h2v-2h2z"
    clip-rule="evenodd"
  />
  <path d="M5 12h18v6H8v19h21V25h8v12h3V18h-1v-6h4v2h-1v23h1a1 1 0 1 1 0 2H5a1 1 0 1 1 0-2h1V14H5z" />
  <path d="M27 34H10v-2h1v-7h15v7h1z" />
</svg>
